X: 2
T: The Ashplant
R: reel
M: 4/4
L: 1/8
K: Edor
AB|:cF~F2 cBAB|cF~F2 EFAB|c2 cB cefg|afec BcAB|
|cF F/F/F/ cBAB| cFF2 EFAB|c2 cB cefg|afec BcdB||
|:c2 ac bcac|c/c/c/ ac cBAB|c/c/c/ ac bcab|afec BcdB|
|c2 ac bcac|c/c/c/ ac cBAB|cefg ~a3 b|afec BcdB||


Tune 726	Setting 28870

